!!!OTL: Todtenamt
!!!ARE: Europa, Mitteleuropa, Deutschland
!!!SCT: A0018
!!!YEM: Copyright 1995, estate of Helmut Schaffrath.
**kern
*ICvox
*Ivox
*M4/2
*k[b-]
*d:
{2d
=1
2d
2d
2.d
4g
=2
1a
2.fn}
{4e
=3
2d
2g
4a
4g
4fn
4e
=4
1fn
2r}
{2e
=5
2g
2a
4g
4fn
4e
4d
=6
1g
2a}
{4fn
4e
=7
4d
4c#
2d
4fn
4e
4d
4c#
=8
1d
2r}
==
!!!AGN: Romanze, Ballade, Lied
!! Melodie: Hs. des 15.Jahrh. aus Karlsruhe
!!!ONB: ESAC (Essen Associative Code) Database: ALTDEU
!!!AMT: simple quadruple
!!!AIN: vox
!!!EED: Helmut Schaffrath
!!!EEV: 1.0
*-
